X:1
T:The Banks o' Skene
M:4/4
L:1/4
K:D
 A| B- A B d| A3/2 F/2 E A| B A B/2- d3/2| B- A AA/2-G/2| F3/2 D/2 B, D/2D/2|\
 C3/2 B,/2 D D| E F A3/2 F/2| E2 D E| F3/2 D/2 B, D/2D/2| C3/2 B,/2 D D|\
 E F A3/2 F/2| E2 D|
